X:1
T:Elégie
T:Elégie for Cello and Piano
T:Jules Émile Frédéric Massenet, 1872
T:&quot;Élégie&quot; by Jules Massenet  Arranged for Cello &amp; Piano by K. Williams
T:&quot;Élégie&quot; by Jules Massenet  Arranged for Cello &amp; Piano by K. Williams
T:&quot;Élégie&quot; by Jules Massenet  Arranged for Cello &amp; Piano by K. Williams
Z:"Élégie" by Jules Massenet  Arranged for Cello & Piano by K. Williams
%%score 1 { ( 2 3 ) | ( 4 5 ) }
L:1/8
Q:1/4=60
M:4/4
K:G
V:1 bass nm="Violoncello" snm="Vc."
V:2 treble nm="Piano" snm="Pno."
V:3 treble 
V:4 bass 
V:5 bass 
V:1
"^Triste et très-lent." z8 | z8[Q:1/4=60]"_rit." | %2
[Q:1/4=48]"^tres expressif et avecaccablement"!p!!<(! (E,2 E2) (D2 ^C2)!<)! | %3
!>(! (=C2 B,>E,) G,4!>)! | (B,2 A,>E,) F,4 | (B,2 A,>B,,) F,2 G,3/2 B,,/ | E,2!f! (E2 D2 ^C2) | %7
 (C2 B,>E,) G,4 |!mf! (B,2 A,>E,) F,4 | (B,2 A,>B,,) F,2 G,3/2 B,,/ | %10
"^Caution: versions differ here" E,2 B,,4 E,,2 | z2 (G,>A, B,2 ^C2) | D2 G,>A, B,4- | %13
 B, z[Q:1/4=50]"^Animez un peu" (D,4 A,>C | B,2 A,>C B,2 A,>C | B,) z B,4 A,>B, | %16
[Q:1/4=48]"^En retenant beaucoup. a Tempo 1" G,2 G,3/2 B,/!p! F,2 !fermata!F,3/2 B,/ | %17
 E, z!mf! (E2 D2 ^C2 | =C2 B,>E,!mf! G,4) | (B,2 A,>E, F,4) | B,2 A,>B,, F,2 G,3/2 B,,/ | %21
!ff! E, z[Q:1/4=40]"^*" (E4 =F>B, | E2) =F>B, E2 C3/2 B,/ |!mf! A,3/2 z/ A,4 !fermata!G,>F, | %24
[Q:1/4=48]"^a Tempo 1" E,3 F, E,B,,G,,E,, | %25
[Q:1/4=40]"^Allargando"!p! (G,,B,,E,G,[K:treble] B,)EGB |[Q:1/4=50]"^*"!>(! !fermata!e8-!>)! | %27
 e2 |] %28
V:2
 z4 B,EBA | F4- F2 GF |!pp! [B,E] [EG]2 [EG]2 [EG]2 [EG]- | [EG] [EG]2 [EG]2 [EG]2 [EG] | %4
!mf! z ([CE]2 [CE]2 [CEF]2 [CEF]) | z!p! ([CE]2 [CEA]) z ([B,^DA]2 [B,DG]) | %6
 z!pp! [EG]2 [EG]2 [EG]2 [EG]- | [EG] [EG]2 [EG]2 [EG]2 [EG] | z ([CE]2 [CE]2 [CEF]2 [CEF]) | %9
 z!p! ([CE]2 [CEA]) z ([B,^DA]2 [B,DG]) | z (z2 [EG]2 [EG]2 [EG]) | z ([B,EG]2 [EG]2 [EG]2 [EGA]) | %12
 z ([GB]2 [GB]2 [GB]2 [GB]- | [GB] [DG]2 [DG]2 [DG]2 [DF]) | z ([DG]2 [_EF] [DG] [DG]2 [^DF]- | %15
 [DF]) [^DB]2 [DB]2 [DB]2 [DB] | [^DB] [DB]2 [DB]2 [B,DA]2!p! !fermata![B,DA] | %17
 [EG] ([EG]2 [EG]2 [EG]2 [EG]- | [EG] [EG]2 [EG]2 [EG]2 [EG]) | z!mf! ([CE]2 [CE]2 [CEF]2 [CEF]) | %20
!p! z ([CE]2 [CEA]) z ([B,^DA]2 [B,DG]) |!ff! z ([B,=D^G]2 [B,DG]2 [B,DG]2 [B,DG] | %22
 [B,D^G] [B,DG]2 [B,DG]2 [B,DG]2 [DEG]) | z [CEA]2 [CEA] z!>(! [C^DA]2 !fermata![A,B,D]!>)! | %24
 [G,B,E] [G,B,]2 [G,B,]2 [G,B,]2 [G,B,]- | [G,B,] ([G,B,]2 [B,E]2 [EG]2 [EGB]) | %26
!<(! ([EGBe]4!<)!!ff!!>(! !fermata![EGBe]4!>)! | [EGBe]2) |] %28
V:3
 z4 x2 [CE]2 | E4 ^D4 | x8 | x8 | x8 | x8 | x8 | x8 | x8 | x8 | x8 | x8 | x8 | x8 | x8 | x8 | x8 | %17
 x8 | x8 | x8 | x8 | x8 | x8 | x8 | x8 | x8 | x8 | x2 |] %28
V:4
!f! E,,B,,E,G, z2 F,2 | B,4 ([B,,A,]4 | [E,G,]) z z2 z4 | =E,4 (C2 B,>E,) | F,4 (B,2 A,>E, | %5
 F,4) (B,,4 | E,,2) E,2 F,3 G, | =E,4 (C2 B,>E,) |!mf! F,4 (B,2 A,>E, | F,4) B,,4 | E,,2 z2 z2 z2 | %11
 E,2 z2 (E,2 ^D,2 | D,2) z2 D2 (G,>A, | B,4) (D,2 F,2 | G,2) (^D,2 E,2) F,2 | B,4- B,2 A,2 | %16
 G,4 F,4 | z z (z2 z4 | =E,4 B,2) G,2 | F,4 B,2 A,>E, | F,4 B,,4 | %21
 [E,,E,]2 !>![E,,E,]>[F,,F,] [G,,G,]2 !>![A,,A,]2 | !>!E,,[E,^G,] [B,,A,]2 (!>!E,4 | %23
 A,2) z2!p! !fermata![B,,,B,,]4 |!pp! E,,4 z2 z z | (z z z G, F,E,B,,G,,) | %26
 ([E,,,G,,,B,,,E,,]4 !fermata![E,,,G,,,B,,,E,,]4 | [E,,,G,,,B,,,E,,]2) |] %28
V:5
 x8 | x8 | x8 | x8 | x8 | x8 | x8 | x8 | x8 | x8 | x8 | x8 | x8 | x8 | x8 | z4 B,,4 | %16
 B,,4- !fermata!B,,4 | E, x7 | x8 | x8 | x8 | x8 | x8 | x8 | x8 | x8 | x8 | x2 |] %28

